X: 133
T: REEL: Golden Keyboard
C: C: Martin Mulhaire; S: Various
C: Set Leaders: André, Sophie, Anton
Z: [Unedited]; Benjamin Glauser at The Session
N: https://thesession.org/members/26966/sets/96714
R: Reel
M: 4/4
L: 1/8
Q: 1/2=100
K: Edor
|:BGEF GFGA|B2gB fBed|BGEF GBAG|F/E/D AD BDAF|
EDEF GFGA|B2gB fBec|d/e/d ce|dBAF|DFAF GEE2:||
|:Bee2 Bee2|Beef edBe|dAA2 eAce|d/e/d ce dBAF|
EDEF GFGA|B2gB fBec|d/e/d ce dBAF|DFAF GEE2:||

